OBS Studio/Fluent Dark Grey/sources/slideshow.svg

<svg viewBox="0 64 1024 896" xmlns="http://www.w3.org/2000/svg"><path d="m188 960c-25 0-48.917-5.083-71.75-15.25-22.833-10.167-42.833-23.833-60-41s-30.833-37.167-41-60c-10.167-22.833-15.25-46.75-15.25-71.75v-520c0-25 5.0833-48.917 15.25-71.75 10.167-22.833 23.833-42.833 41-60s37.167-30.833 60-41c22.833-10.167 46.75-15.25 71.75-15.25h648c25 1e-4 48.917 5.0834 71.75 15.25 22.833 10.167 42.833 23.833 60 41s30.833 37.167 41 60c10.17 22.833 15.25 46.75 15.25 71.75v520c0 25-5.08 48.917-15.25 71.75-10.167 22.833-23.833 42.833-41 60s-37.167 30.833-60 41-46.75 15.25-71.75 15.25zm646.5-64c16.667 0 32.583-3.417 47.75-10.25s28.5-16 40-27.5 20.667-24.833 27.5-40 10.25-31.083 10.25-47.75v-517c0-16.667-3.417-32.583-10.25-47.75s-16-28.5-27.5-40-24.833-20.667-40-27.5-31.083-10.25-47.75-10.25h-645c-16.667 0-32.583 3.417-47.75 10.25s-28.5 16-40 27.5-20.667 24.833-27.5 40-10.25 31.083-10.25 47.75v517c0 16.667 3.4167 32.583 10.25 47.75s16 28.5 27.5 40 24.833 20.667 40 27.5 31.083 10.25 47.75 10.25zm-514.5-241v-286c0-11 2.083-21.417 6.25-31.25s9.833-18.333 17-25.5 15.667-12.917 25.5-17.25 20.25-6.5 31.25-6.5c13.333 0 26.167 3.333 38.5 10l262.5 143.5c12.667 7 22.75 16.75 30.25 29.25s11.25 26.083 11.25 40.75-3.75 28.25-11.25 40.75-17.583 22.25-30.25 29.25l-262.5 143.5c-11.667 6.333-24.5 9.5-38.5 9.5-11 0-21.417-2.083-31.25-6.25s-18.333-9.833-25.5-17-12.833-15.667-17-25.5-6.25-20.25-6.25-31.25zm358.5-143c0-3.667-0.75-6.417-2.25-8.25s-3.583-3.75-6.25-5.75-8.583-5.583-17.75-10.75-20.167-11.25-33-18.25-27.083-14.75-42.75-23.25-31.5-17.083-47.5-25.75-31.583-17-46.75-25-28.667-15.167-40.5-21.5-21.583-11.333-29.25-15-11.833-5.5-12.5-5.5c-4.667 0-8.5 1.5-11.5 4.5s-4.5 6.833-4.5 11.5v286c0 4.667 1.5 8.5 4.5 11.5s6.833 4.5 11.5 4.5c0.667 0 4.833-1.833 12.5-5.5s17.417-8.667 29.25-15 25.333-13.5 40.5-21.5 30.75-16.333 46.75-25 31.833-17.25 47.5-25.75 29.917-16.25 42.75-23.25 23.833-13.083 33-18.25 15.083-8.75 17.75-10.75 4.75-3.917 6.25-5.75 2.25-4.583 2.25-8.25z" fill="#fff"></path></svg>

<!-- Exported by Character Map UWP -->
<svg height="100%" viewBox="0 64 1024 896" width="100%" xmlns="http://www.w3.org/2000/svg" xmlns:xlink="http://www.w3.org/1999/xlink">
  <path d="M188,960C163,960 139.083,954.917 116.25,944.75C93.4167,934.583 73.4167,920.917 56.25,903.75C39.0833,886.583 25.4167,866.583 15.25,843.75C5.08333,820.917 0,797 0,772L0,252C0,227 5.08333,203.083 15.25,180.25C25.4167,157.417 39.0833,137.417 56.25,120.25C73.4167,103.083 93.4167,89.4167 116.25,79.25C139.083,69.0834 163,64.0001 188,64L836,64C861,64.0001 884.917,69.0834 907.75,79.25C930.583,89.4167 950.583,103.083 967.75,120.25C984.917,137.417 998.583,157.417 1008.75,180.25C1018.92,203.083 1024,227 1024,252L1024,772C1024,797 1018.92,820.917 1008.75,843.75C998.583,866.583 984.917,886.583 967.75,903.75C950.583,920.917 930.583,934.583 907.75,944.75C884.917,954.917 861,960 836,960ZM834.5,896C851.167,896 867.083,892.583 882.25,885.75C897.417,878.917 910.75,869.75 922.25,858.25C933.75,846.75 942.917,833.417 949.75,818.25C956.583,803.083 960,787.167 960,770.5L960,253.5C960,236.833 956.583,220.917 949.75,205.75C942.917,190.583 933.75,177.25 922.25,165.75C910.75,154.25 897.417,145.083 882.25,138.25C867.083,131.417 851.167,128 834.5,128L189.5,128C172.833,128 156.917,131.417 141.75,138.25C126.583,145.083 113.25,154.25 101.75,165.75C90.25,177.25 81.0833,190.583 74.25,205.75C67.4167,220.917 64,236.833 64,253.5L64,770.5C64,787.167 67.4167,803.083 74.25,818.25C81.0833,833.417 90.25,846.75 101.75,858.25C113.25,869.75 126.583,878.917 141.75,885.75C156.917,892.583 172.833,896 189.5,896ZM320,655L320,369C320,358 322.083,347.583 326.25,337.75C330.417,327.917 336.083,319.417 343.25,312.25C350.417,305.083 358.917,299.333 368.75,295C378.583,290.667 389,288.5 400,288.5C413.333,288.5 426.167,291.833 438.5,298.5L701,442C713.667,449 723.75,458.75 731.25,471.25C738.75,483.75 742.5,497.333 742.5,512C742.5,526.667 738.75,540.25 731.25,552.75C723.75,565.25 713.667,575 701,582L438.5,725.5C426.833,731.833 414,735 400,735C389,735 378.583,732.917 368.75,728.75C358.917,724.583 350.417,718.917 343.25,711.75C336.083,704.583 330.417,696.083 326.25,686.25C322.083,676.417 320,666 320,655ZM678.5,512C678.5,508.333 677.75,505.583 676.25,503.75C674.75,501.917 672.667,500 670,498C667.333,496 661.417,492.417 652.25,487.25C643.083,482.083 632.083,476 619.25,469C606.417,462 592.167,454.25 576.5,445.75C560.833,437.25 545,428.667 529,420C513,411.333 497.417,403 482.25,395C467.083,387 453.583,379.833 441.75,373.5C429.917,367.167 420.167,362.167 412.5,358.5C404.833,354.833 400.667,353 400,353C395.333,353 391.5,354.5 388.5,357.5C385.5,360.5 384,364.333 384,369L384,655C384,659.667 385.5,663.5 388.5,666.5C391.5,669.5 395.333,671 400,671C400.667,671 404.833,669.167 412.5,665.5C420.167,661.833 429.917,656.833 441.75,650.5C453.583,644.167 467.083,637 482.25,629C497.417,621 513,612.667 529,604C545,595.333 560.833,586.75 576.5,578.25C592.167,569.75 606.417,562 619.25,555C632.083,548 643.083,541.917 652.25,536.75C661.417,531.583 667.333,528 670,526C672.667,524 674.75,522.083 676.25,520.25C677.75,518.417 678.5,515.667 678.5,512Z" fill="#FFFFFF" fill-opacity="1">
  </path>
</svg>
